X:554
T: REGE REGE SCHUURE
N: E1841
O: Europa, Mitteleuropa, Deutschland, Niederrhein, Meurs
R: Kinder - Lied, Regen - Lied
M: 2/4
L: 1/16
K: G
 | G2G2A2A2 | B4G2D2 |
G2G2A2A2 | B4G2D2 |
B2B2AAG2 | B2B2B2
B2 | A2A2A2A2 | B4B4 |
A2A2A2B2 | G2G2G4

@@@ Tune index: 5238
